X: 150
%
U:~=!turn!
T: The Duchess of Athole's Slipper
C:Neil Gow
O:Scotland
B:Keith Norman MacDonald : "The Skye collection of the best reels & strathspeys extant" : 1887
Z:Ralph Palmer
R:Strathspey
M:C
L:1/8
K:F
(CF)AF cFAF | (CF)AF D<G TG2 | CFAF cFA<f | {/d}c>BAG F<FF:| c<f Tf2 cfaf | g>faf d<g g2 |
c<f Tf2 cfaf | g>faf c<f Tf2 | c<f Tf2 cfaf | Tg>faf d<g Tg2 | f<ad>f c<fA<f | {/d}Tc>BAG F>F TF2|]


